web/assets/hologram.svg

<svg id="Capa_1" enable-background="new 0 0 512 512" height="512" viewBox="0 0 512 512" width="512" xmlns="http://www.w3.org/2000/svg"><g><g><path d="m363.553 376.189 99.113-369.895c.851-3.176-1.542-6.294-4.829-6.294h-403.674c-3.288 0-5.681 3.118-4.83 6.294l99.113 369.895c.586 2.186 2.567 3.706 4.83 3.706h205.448c2.263 0 4.244-1.52 4.829-3.706z" fill="#c9ebfa"/></g><path d="m363.969 481.152h-215.938v-36.414c0-8.284 6.716-15 15-15h185.938c8.284 0 15 6.716 15 15z" fill="#548eb5"/><path d="m363.97 461.15v20h-215.94v-36.41c0-8.29 6.72-15 15-15h35v24.41c0 3.866 3.134 7 7 7z" fill="#447d99"/><path d="m256 208.215v-101.794l-77.997-55.524v103.714c0 1.689.853 3.264 2.268 4.187z" fill="#08a9f1"/><path d="m256 208.215v-101.794l77.997-55.524v103.714c0 1.689-.853 3.264-2.268 4.187z" fill="#01d0fb"/><path d="m256 106.421-77.997-55.524 75.265-49.114c1.66-1.084 3.804-1.084 5.465 0l75.265 49.114z" fill="#a0ddf3"/><g><g><path d="m256 314.62c-4.259 0-7.712-3.452-7.712-7.712v-50.949c0-4.26 3.453-7.712 7.712-7.712s7.712 3.452 7.712 7.712v50.949c0 4.26-3.453 7.712-7.712 7.712z" fill="#eefaff"/></g><g><path d="m256 409.207c-4.259 0-7.712-3.452-7.712-7.712v-50.95c0-4.26 3.453-7.712 7.712-7.712s7.712 3.452 7.712 7.712v50.95c0 4.259-3.453 7.712-7.712 7.712z" fill="#eefaff"/></g><g><path d="m191.184 294.801c-3.405 0-6.521-2.272-7.444-5.718l-13.186-49.214c-1.102-4.114 1.34-8.344 5.454-9.445 4.113-1.106 8.343 1.339 9.445 5.453l13.186 49.214c1.102 4.114-1.34 8.344-5.454 9.445-.668.179-1.34.265-2.001.265z" fill="#eefaff"/></g><g><path d="m215.665 386.163c-3.405 0-6.521-2.272-7.444-5.718l-13.186-49.213c-1.102-4.114 1.34-8.344 5.454-9.445 4.112-1.106 8.343 1.339 9.445 5.453l13.186 49.213c1.102 4.114-1.34 8.344-5.454 9.445-.669.179-1.34.265-2.001.265z" fill="#eefaff"/></g><g><path d="m319.484 294.801c-.661 0-1.332-.085-2.001-.265-4.114-1.102-6.556-5.331-5.454-9.445l13.186-49.214c1.103-4.114 5.337-6.557 9.445-5.453 4.114 1.102 6.556 5.331 5.454 9.445l-13.186 49.214c-.922 3.445-4.039 5.718-7.444 5.718z" fill="#eefaff"/></g><g><path d="m295.004 386.163c-.661 0-1.333-.085-2.001-.265-4.114-1.103-6.555-5.331-5.453-9.445l13.187-49.213c1.103-4.114 5.335-6.556 9.446-5.453 4.114 1.103 6.555 5.331 5.453 9.445l-13.187 49.213c-.924 3.445-4.041 5.718-7.445 5.718z" fill="#eefaff"/></g></g><path d="m410.241 512h-308.482v-34.131c0-3.866 3.134-7 7-7h294.483c3.866 0 7 3.134 7 7v34.131z" fill="#548eb5"/><path d="m158.76 470.87c-3.87 0-7 3.13-7 7v34.13h-50v-34.13c0-3.87 3.13-7 7-7z" fill="#447d99"/></g></svg>

<svg xmlns="http://www.w3.org/2000/svg" xmlns:xlink="http://www.w3.org/1999/xlink" width="413.679" height="512" viewBox="0 0 413.679 512"><defs><linearGradient id="a" x1="0.5" x2="0.5" y2="1" gradientUnits="objectBoundingBox"><stop offset="0" stop-color="#fffbfb" stop-opacity="0.38"/><stop offset="1" stop-color="#f5c5c5"/></linearGradient></defs><g transform="translate(-49.16)"><path d="M363.553,376.189,462.666,6.294A5,5,0,0,0,457.837,0H54.163a5,5,0,0,0-4.83,6.294l99.113,369.895a5,5,0,0,0,4.83,3.706H358.724A5,5,0,0,0,363.553,376.189Z" fill="url(#a)"/><path d="M363.969,481.152H148.031V444.738a15,15,0,0,1,15-15H348.969a15,15,0,0,1,15,15Z" fill="#548eb5"/><path d="M363.97,461.15v20H148.03V444.74a15,15,0,0,1,15-15h35v24.41a7,7,0,0,0,7,7Z" fill="#447d99"/><path d="M256,208.215V106.421L178,50.9V154.611a5,5,0,0,0,2.268,4.187Z" fill="#c20000"/><path d="M256,208.215V106.421L334,50.9V154.611a5,5,0,0,1-2.268,4.187Z" fill="#dc0d16"/><path d="M256,106.421,178,50.9,253.268,1.783a5,5,0,0,1,5.465,0L334,50.9Z" fill="#f92d36"/><path d="M256,314.62a7.712,7.712,0,0,1-7.712-7.712V255.959a7.712,7.712,0,1,1,15.424,0v50.949A7.712,7.712,0,0,1,256,314.62Z" fill="#eefaff"/><path d="M256,409.207a7.712,7.712,0,0,1-7.712-7.712v-50.95a7.712,7.712,0,1,1,15.424,0v50.95A7.712,7.712,0,0,1,256,409.207Z" fill="#eefaff"/><path d="M191.184,294.8a7.714,7.714,0,0,1-7.444-5.718l-13.186-49.214a7.712,7.712,0,0,1,14.9-3.992l13.186,49.214a7.72,7.72,0,0,1-7.455,9.71Z" fill="#eefaff"/><path d="M215.665,386.163a7.714,7.714,0,0,1-7.444-5.718l-13.186-49.213a7.712,7.712,0,0,1,14.9-3.992l13.186,49.213a7.72,7.72,0,0,1-7.455,9.71Z" fill="#eefaff"/><path d="M319.484,294.8a7.72,7.72,0,0,1-7.455-9.71l13.186-49.214a7.712,7.712,0,0,1,14.9,3.992l-13.186,49.214a7.715,7.715,0,0,1-7.444,5.718Z" fill="#eefaff"/><path d="M295,386.163a7.719,7.719,0,0,1-7.454-9.71l13.187-49.213a7.712,7.712,0,0,1,14.9,3.992l-13.187,49.213A7.718,7.718,0,0,1,295,386.163Z" fill="#eefaff"/><path d="M410.241,512H101.759V477.869a7,7,0,0,1,7-7H403.242a7,7,0,0,1,7,7V512Z" fill="#548eb5"/><path d="M158.76,470.87a7,7,0,0,0-7,7V512h-50V477.87a7,7,0,0,1,7-7Z" fill="#447d99"/></g></svg>
